icons/sidebar-expand-24.svg

<svg width="24" height="24" viewBox="0 0 24 24" fill="none" xmlns="http://www.w3.org/2000/svg">
<path fill-rule="evenodd" clip-rule="evenodd" d="M11.2803 9.53033L8.81065 12L11.2803 14.4697C11.5732 14.7626 11.5732 15.2374 11.2803 15.5303C10.9874 15.8232 10.5126 15.8232 10.2197 15.5303L7.21966 12.5303C6.92677 12.2374 6.92677 11.7626 7.21966 11.4697L10.2197 8.46967C10.5126 8.17678 10.9874 8.17678 11.2803 8.46967C11.5732 8.76256 11.5732 9.23744 11.2803 9.53033Z" fill="black"/>
<path fill-rule="evenodd" clip-rule="evenodd" d="M3.75 2C2.7835 2 2 2.7835 2 3.75V20.25C2 21.2165 2.7835 22 3.75 22H20.25C21.2165 22 22 21.2165 22 20.25V3.75C22 2.7835 21.2165 2 20.25 2H3.75ZM3.5 3.75C3.5 3.61193 3.61193 3.5 3.75 3.5H15V20.5H3.75C3.61193 20.5 3.5 20.3881 3.5 20.25V3.75ZM16.5 20.5V3.5H20.25C20.3881 3.5 20.5 3.61193 20.5 3.75V20.25C20.5 20.3881 20.3881 20.5 20.25 20.5H16.5Z" fill="black"/>
</svg>

<svg xmlns="http://www.w3.org/2000/svg" width="24" height="24" viewBox="0 0 24 24"><path fill-rule="evenodd" d="M11.28 9.53L8.81 12l2.47 2.47a.75.75 0 11-1.06 1.06l-3-3a.75.75 0 010-1.06l3-3a.75.75 0 111.06 1.06z"/><path fill-rule="evenodd" d="M3.75 2A1.75 1.75 0 002 3.75v16.5c0 .966.784 1.75 1.75 1.75h16.5A1.75 1.75 0 0022 20.25V3.75A1.75 1.75 0 0020.25 2H3.75zM3.5 3.75a.25.25 0 01.25-.25H15v17H3.75a.25.25 0 01-.25-.25V3.75zm13 16.75v-17h3.75a.25.25 0 01.25.25v16.5a.25.25 0 01-.25.25H16.5z"/></svg>
